X:1
T:Montmartre, 87.87 D
T:Montmartre, 87.87 D
T:Arranged by Abram Bowman Kolb, 1898
T:Public Domain Courtesy of the Cyber Hymnal™
C:Arranged by Abram Bowman Kolb, 1898
Z:Public Domain
Z:Courtesy of the Cyber Hymnal™
%%score ( 1 2 ) 3
L:1/8
Q:1/4=93
M:3/4
K:Ab
V:1 treble 
V:2 treble 
V:3 bass 
V:1
 [Ec]>[Ec] | [Ec]3 [EA] (B/A/)[DF] | [CE]2 [EA]2 [Ae]>[Ae] | [Ge]3 [Ge] [Gf][F=d] | %4
 [Ge]4 [Ed]>[Ed] | [Ec]3 [EA] (B/A/)[DF] | [CE]2 [EA]2 [EA][FB] | [Ec]E [Gc]3 [GB] | A4 [Ae]>[Ae] | %9
 [Ae]3 [Ae] (c/d/)[Ae] | [Af]2 [Ae]2 [Ac]>[Ac] | [Ac]3 [Ae] ([ce]/[Bd]/)[Ac] | [GB]4 [Ge]>[Ge] | %13
 [Ae]3 [_Ac] (c/d/)[Fe] | [Fe]2 [Fd]2 [DF][FB] | [EA][EG] [Gc]3 [GB] | A4 |] %17
V:2
 x2 | x4 F x | x6 | x6 | x6 | x4 E x | x6 | x E x4 | A4 x2 | x4 A x | x6 | x6 | x6 | x4 F x | x6 | %15
 x6 | A4 |] %17
V:3
 [A,,A,]>[A,,A,] | [A,,A,]3 [C,A,] [D,A,][D,A,] | [A,,A,]2 [A,,A,]2 [A,C]>[A,C] | %3
 [E,B,]3 [E,B,] [B,,B,][B,,B,] | [E,B,]4 [E,B,]>[E,B,] | [A,,A,]3 [C,A,] [D,A,][D,A,] | %6
 [A,,A,]2 [A,,C]2 [C,A,][D,A,] | [E,A,][E,C] [E,E]3 [E,D] | [A,,C]4 [A,C]>[A,C] | %9
 [A,C]3 [A,C] [A,E][A,C] | [A,D]2 [A,C]2 [A,E]>[A,E] | [A,E]3 [A,C] [G,E][A,E] | %12
 [E,E]4 [E,B,]>[E,B,] | [A,C]3 [A,E] [=A,E][A,C] | [B,D]2 [B,D]2 [D,D][D,D] | %15
 [E,C][E,B,] [E,E]3 [E,D] | [A,,C]4 |] %17

